svgs/reev_pro.svg

<svg width="192" height="192" viewBox="0 0 192 192" fill="none" xmlns="http://www.w3.org/2000/svg">
<path d="M35 131.238V164C35 167.314 37.6863 170 41 170H157L111.124 96.5034H119.748C140.322 96.5034 157 79.8252 157 59.2517V59.2517C157 38.6782 140.322 22 119.748 22H41C37.6863 22 35 24.6863 35 28V55.2245" stroke="black" stroke-width="12" stroke-linecap="round" stroke-linejoin="round"/>
<path d="M35 94.4898H63.7355" stroke="black" stroke-width="12" stroke-linecap="round" stroke-linejoin="round"/>
</svg>

<svg width="192" height="192" viewBox="0 0 192 192" fill="none" xmlns="http://www.w3.org/2000/svg"><path d="M35 131.238V164a6 6 0 0 0 6 6h116l-45.876-73.497h8.624c20.574 0 37.252-16.678 37.252-37.251v0C157 38.678 140.322 22 119.748 22H41a6 6 0 0 0-6 6v27.224M35 94.49h28.736" stroke="#000" stroke-width="12" stroke-linecap="round" stroke-linejoin="round"/></svg>
